X:271
T: ES FUHR EIN BAUER INS HOLZ
N: E0149A
O: Europa, Mitteleuropa, Deutschland
R: erzaehlendes Volks - Lied, Scherz, Schwank, betrogener Ehemann
M: 4/4
L: 1/8
K: C
C2 | C3CB,3B, | A,3A,G,3
G, | E,3F,G,2 | C,2z2
C2 | C2B,2C2D2 | E4D2
E2 | F2E2D2C2 | C4D2B,2 | C4D2B,2 | C4z2

